X:3259
T:Kilavel Jig, The
O:england
R:jig
S:Madison, Wisconsin sessions
E:16
M:6/8
L:1/8
K:EDor
BEE BEE|d2f edB|BAF FEF|DFA BAF|
BEE BEE|
d2f edB|BAF dAF|FED E3:|
|:Bef gfe|fgf edB|BAF FEF|
DFA BAF|Bef gfe|fgf edB|BAF dAF|
FED E3:|"Optional last four bars, especially the last time through the t
une"BEE BEE|d2f edB|BAF dAF|
FED E3|]


